src/22x22/places/folder-gruvbox-material-orange-vmware.svg

<svg xmlns="http://www.w3.org/2000/svg" width="22" height="22" version="1">
 <rect style="opacity:0.2" width="20" height="12" x="1" y="8.5" rx="1" ry="1"/>
 <path style="fill:#c35e0a" d="m 1,16 c 0,0.554 0.446,1 1,1 h 18 c 0.554,0 1,-0.446 1,-1 V 5 C 21,4.446 20.554,4 20,4 H 11 C 9.5,4 9,2 7.5,2 H 2 C 1.446,2 1,2.446 1,3"/>
 <path style="opacity:0.1;fill:#F5E4C1" d="M 2,2 C 1.446,2 1,2.446 1,3 v 0.5 c 0,-0.554 0.446,-1 1,-1 h 5.5 c 1.5,0 2,2 3.5,2 h 9 c 0.554,0 1,0.446 1,1 V 5 C 21,4.446 20.554,4 20,4 H 11 C 9.5,4 9,2 7.5,2 Z"/>
 <rect style="opacity:0.2" width="20" height="12" x="1" y="7.5" rx="1" ry="1"/>
 <rect style="fill:#F5E4C1" width="16" height="8" x="3" y="6" rx="1" ry="1"/>
 <rect style="fill:#e78a4e" width="20" height="12" x="1" y="8" rx="1" ry="1"/>
 <path style="fill:#564135" d="m 7.5712889,10 c -0.316572,0 -0.5712891,0.254717 -0.5712891,0.571289 v 2.371094 c 0,0.316571 0.1551081,0.572265 0.4716791,0.572265 0.316572,0 0.528321,-0.255693 0.528321,-0.572265 V 11.8465 L 9,12.803711 V 13.5 h 1 V 13.25 C 10,13.1115 10.1115,13 10.25,13 H 10.5 V 12 H 9.803711 L 8.8464999,11 H 9.942383 c 0.316572,0 0.572265,-0.211749 0.572265,-0.528321 C 10.514648,10.155108 10.258955,10 9.942383,10 Z m 4.4863281,0 c -0.316572,0 -0.572266,0.155108 -0.572266,0.471679 0,0.316572 0.255694,0.528321 0.572266,0.528321 H 13.1535 l -0.957211,1 H 11.5 v 1 h 0.25 c 0.1385,0 0.25,0.1115 0.25,0.25 v 0.25 h 1 V 12.803711 L 14,11.8465 v 1.095883 c 0,0.316571 0.211749,0.572265 0.52832,0.572265 0.316572,0 0.47168,-0.255694 0.47168,-0.572265 V 10.571289 C 15,10.254717 14.745283,10 14.428711,10 Z m 2.470703,4.485351 C 14.211749,14.485351 14,14.741045 14,15.057617 V 16.1535 L 13,15.196289 V 14.5 h -1 v 0.25 C 12,14.8885 11.8885,15 11.75,15 H 11.5 v 1 h 0.696289 L 13.1535,17 H 12.057617 C 11.785004,17 11.557915,17.157551 11.5,17.40332 V 17.5 h 5e-4 c -4.76e-4,0.0095 -0.001,0.01861 -0.001,0.02832 0,0.316571 0.241524,0.471679 0.558096,0.471679 h 2.371093 C 14.745283,18 15,17.745282 15,17.428711 v -2.371094 c 0,-0.316572 -0.155108,-0.572266 -0.47168,-0.572266 z M 9,14.500001 v 0.928711 c 0,0.316571 0.254717,0.571289 0.571289,0.571289 H 10.5 v -1 h -0.25 c -0.1385,0 -0.25,-0.1115 -0.25,-0.25 v -0.25 z"/>
</svg>

<?xml version="1.0" encoding="UTF-8"?>
<svg width="22" height="22" version="1" xmlns="http://www.w3.org/2000/svg">
 <rect x="1" y="8.5" width="20" height="12" rx="1" ry="1" opacity=".2"/>
 <path d="m1 16c0 0.554 0.446 1 1 1h18c0.554 0 1-0.446 1-1v-11c0-0.554-0.446-1-1-1h-9c-1.5 0-2-2-3.5-2h-5.5c-0.554 0-1 0.446-1 1" fill="#c35e0a"/>
 <path d="m2 2c-0.554 0-1 0.446-1 1v0.5c0-0.554 0.446-1 1-1h5.5c1.5 0 2 2 3.5 2h9c0.554 0 1 0.446 1 1v-0.5c0-0.554-0.446-1-1-1h-9c-1.5 0-2-2-3.5-2z" fill="#F5E4C1" opacity=".1"/>
 <rect x="1" y="7.5" width="20" height="12" rx="1" ry="1" opacity=".2"/>
 <rect x="3" y="6" width="16" height="8" rx="1" ry="1" fill="#F5E4C1"/>
 <rect x="1" y="8" width="20" height="12" rx="1" ry="1" fill="#e78a4e"/>
 <path d="m7.5713 10c-0.31657 0-0.57129 0.25472-0.57129 0.57129v2.3711c0 0.31657 0.15511 0.57226 0.47168 0.57226 0.31657 0 0.52832-0.25569 0.52832-0.57226v-1.0959l1 0.95721v0.69629h1v-0.25c0-0.1385 0.1115-0.25 0.25-0.25h0.25v-1h-0.69629l-0.95721-1h1.0959c0.31657 0 0.57226-0.21175 0.57226-0.52832 0-0.31657-0.25569-0.47168-0.57226-0.47168zm4.4863 0c-0.31657 0-0.57227 0.15511-0.57227 0.47168 0 0.31657 0.25569 0.52832 0.57227 0.52832h1.0959l-0.95721 1h-0.69629v1h0.25c0.1385 0 0.25 0.1115 0.25 0.25v0.25h1v-0.69629l1-0.95721v1.0959c0 0.31657 0.21175 0.57226 0.52832 0.57226 0.31657 0 0.47168-0.25569 0.47168-0.57226v-2.3711c0-0.31657-0.25472-0.57129-0.57129-0.57129zm2.4707 4.4854c-0.31657 0-0.52832 0.25569-0.52832 0.57227v1.0959l-1-0.95721v-0.69629h-1v0.25c0 0.1385-0.1115 0.25-0.25 0.25h-0.25v1h0.69629l0.95721 1h-1.0959c-0.27261 0-0.4997 0.15755-0.55762 0.40332v0.09668h5e-4c-4.76e-4 0.0095-1e-3 0.01861-1e-3 0.02832 0 0.31657 0.24152 0.47168 0.5581 0.47168h2.3711c0.31659 1e-6 0.57131-0.25472 0.57131-0.57129v-2.3711c0-0.31657-0.15511-0.57227-0.47168-0.57227zm-5.5283 0.01465v0.92871c0 0.31657 0.25472 0.57129 0.57129 0.57129h0.92871v-1h-0.25c-0.1385 0-0.25-0.1115-0.25-0.25v-0.25z" fill="#564135"/>
</svg>
